packages/kaspersky-hexa-ui-icons/src/iconsSVGs/24/ArrowLeft.svg

<svg width="24" height="24" viewBox="0 0 24 24" fill="none" xmlns="http://www.w3.org/2000/svg">
<path fill-rule="evenodd" clip-rule="evenodd" d="M15.2076 6.29336C15.5978 6.68414 15.5974 7.31731 15.2066 7.70757L10.9142 11.9943L15.2076 16.2934C15.5978 16.6841 15.5974 17.3173 15.2066 17.7076C14.8159 18.0978 14.1827 18.0974 13.7924 17.7066L8.79243 12.7C8.60501 12.5124 8.49983 12.258 8.5 11.9927C8.50018 11.7275 8.6057 11.4732 8.79336 11.2858L13.7934 6.29243C14.1841 5.90216 14.8173 5.90258 15.2076 6.29336Z" fill="black"/>
</svg>

<svg xmlns="http://www.w3.org/2000/svg" width="24" height="24" fill="none" viewBox="0 0 24 24"><path fill="#000" fill-rule="evenodd" d="M15.2076 6.2934c.3902.3907.3898 1.024-.001 1.4142l-4.2924 4.2867 4.2934 4.2991c.3902.3907.3898 1.0239-.001 1.4142s-1.0239.3898-1.4142-.001l-5-5.0066a.9997.9997 0 0 1 .001-1.4142l5-4.9934c.3907-.3902 1.0239-.3898 1.4142.001" clip-rule="evenodd"/></svg>
